X:273
T:Andy Renwick's Ferret
C:Gordon Duncan
S:Olivia Hivon
R:reel
M:4/4
L:1/8
K:Ador
cAA2 ABcd | eaag agef | gdd2 egdg |  degd egdB |
cAA2 ABcd | eaag agef | gdd2 egdg |1 dBgB A2 AB:|2 dBgB A2 Bd ||
eaag ageg | a3a- agef | gdd2 egdg |  degd egdg |
eaag ageg | a3b  agef | gdd2 efge |  dBGB A2 Bd |
eaag ageg | a2ag agef | gdd2 egdg |  degd egdB |
cAA2 ABcd | eaag agef | gdd2 efge |  dBGB A2 AB |]
